!!!OTL: Der unerbittliche Hauptmann (162), S. 352
!!!id: T0335
**kern
*clefG2
*k[b-]
*F:
{4c
=1
4.f
8g
4a
4f
=2
4.g
8a
4b-}
=3
{4b-
=4
4a
4f
4cc
4a
=5
2g}
4r
=6
{8b-
8b-
=7
4b-
4dd
4dd
4dd
=8
4cc
4ff
4a}
=9
{4cc
=10
4.cc
8b-
4a
4g
=11
4f
4a
4cc}
=12
{8cc
8cc
=13
4b-
4dd
4dd
4dd
=14
4cc
4ff
4a}
=15
{4cc
=16
4.cc
8b-
4a
4g
=17
2f}
4r
==
*-
!!!minrhy: 8
!!!meters: 4/4 ]  ZZ[6
!!!cut: Der unerbittliche Hauptmann (162), S. 352
!!!reg: Luxemburg
!!!trd: Singendes Volk, Esch-Alzette 1937, posth.
!!!rhy1: X_  X_.XX_X_  X_.XX_
!!!rhy2: X_  X_X_X_X_  X__0_
!!!key: T0335  08  F 4/4 ]  ZZ[6
!!!mod: SECHSTONSKALA DUR ?]  AMBITUS[11
!!!kad: 423531
!!!akz: 1324_352_4653_5315_4653_531_
!!!fot: 'a__b__as"c__as"cv_
!!!for: 'a__b__bw_c__bw_aw_
!!!fok: '/__\__^d_V__^d_\__
!! PHRAS[AUFTAKTIG]
!!!fkt: historische, Kriegs- und Soldatenlieder
!!!bem: Junglinster, Vater des Verfassers
!! THILL, Mathias:
!! PR[40] 2K[0] 2G[7] 3K[12] 3G[5] 4A[2] 4Ü[0] 5A[2] 6K[0] 6G[0]
!! 7K[0] 7G[0] 8A[0] MEHR[0] SI[29] ABS[42] SR[7] SP[21]
!! ST[13] 2k[7] 2g[17] 3k[2] 3g[0] 4d[2] 4ü[0] 5d[2] 6k[0] 6g[0]
!! 7k[0] 7g[0] 8d[0] mehr[0] si[31] dm[-2] sr[24] sp[7]
!! 1F[4] 2F[87] 3F[4] 4F[4] LF[0] 2P[0] 3P[0] 4P[0] TRI[0] DF[4] AB[45]
!! TF[0] U3K[0] U3[0] U4[0] U4Ü[0] U5[5] U6K[0] U6[0] U7K[0] U7[0]
!! N1[14] N2K[0] N2[26] N3K[0] N3[23] N4[12] N4Ü[0] N5[19] N6K[0] N6[2]
!!!n7k: 0] N7[0] O1[0] O2K[0] O2[0] O3K[0] O3[0] HÖ[0
